Sources/FrostedUI/Resources/Icons.xcassets/trashSolid32.imageset/trash-solid-32.svg

<svg
  width="32"
  height="32"
  viewBox="0 0 32 32"
  fill="none"
  xmlns="http://www.w3.org/2000/svg"
  data-fui-icon="true"
>
  <path
    d="M23.6582 26.1665L24.5 9.7605H7.5L8.34179 26.1665C8.43045 27.8944 9.85732 29.25 11.5875 29.25H20.4125C22.1427 29.25 23.5696 27.8945 23.6582 26.1665Z"
    fill="currentColor"
    stroke="currentColor"
    stroke-width="1.5"
    stroke-linecap="round"
    stroke-linejoin="round"
  />
  <path
    d="M11.5 7.75L11.8029 5.73081C12.0599 4.01749 13.5317 2.75 15.2642 2.75H16.7358C18.4683 2.75 19.9401 4.01749 20.1971 5.73081L20.5 7.75M4.75 7.75H27.25"
    stroke="currentColor"
    stroke-width="1.5"
    stroke-linecap="round"
    stroke-linejoin="round"
  />
</svg>

<svg xmlns="http://www.w3.org/2000/svg" width="32" height="32" fill="none" data-fui-icon="true" viewBox="0 0 32 32"><path fill="currentColor" stroke="currentColor" stroke-linecap="round" stroke-linejoin="round" stroke-width="1.5" d="M23.658 26.167 24.5 9.76h-17l.842 16.406a3.25 3.25 0 0 0 3.246 3.083h8.825a3.25 3.25 0 0 0 3.245-3.084"/><path stroke="currentColor" stroke-linecap="round" stroke-linejoin="round" stroke-width="1.5" d="m11.5 7.75.303-2.02a3.5 3.5 0 0 1 3.461-2.98h1.472a3.5 3.5 0 0 1 3.461 2.98l.303 2.02m-15.75 0h22.5"/></svg>
